img/ic-as-wall.svg

<svg xmlns="http://www.w3.org/2000/svg" width="16" height="14" fill="none"><g fill="#000" clip-path="url(#a)"><path d="M16 12H0v2h16v-2ZM14 2v6H2V2h12Zm2-2H0v10h16V0Z"/></g><defs><clipPath id="a"><path fill="#fff" d="M0 0h16v14H0z"/></clipPath></defs></svg>

<svg width="16" height="14" viewBox="0 0 16 14" fill="none" xmlns="http://www.w3.org/2000/svg">
<path d="M16 12H0V14H16V12Z" fill="black"/>
<path d="M14 2V8H2V2H14ZM16 0H0V10H16V0Z" fill="black"/>
</svg>
